Origami/22x22/apps/rtt-rstudio.svg

<svg width="22" height="22" version="1" xmlns="http://www.w3.org/2000/svg">
 <rect transform="matrix(0,-1,-1,0,0,0)" x="-21" y="-19" width="20" height="16" rx="1" ry="1" style="fill:#cccccc"/>
 <path d="m3 20v0.5c0 0.554 0.446 1 1 1h14c0.554 0 1-0.446 1-1v-0.5c0 0.554-0.446 1-1 1h-14c-0.554 0-1-0.446-1-1z" style="opacity:.2"/>
 <path d="m11 4c-2.7614 0-5 2.2386-5 5v5h5c2.7614 0 5-2.2386 5-5s-2.2386-5-5-5zm0 3c1.10456 0 2 0.89544 2 2s-0.89544 2-2 2-2-0.89544-2-2 0.89544-2 2-2z" style="opacity:.5"/>
 <path d="m4 1c-0.554 0-1 0.446-1 1v0.5c0-0.554 0.446-1 1-1h14c0.554 0 1 0.446 1 1v-0.5c0-0.554-0.446-1-1-1h-14z" style="fill:#ffffff;opacity:.2"/>
 <circle cx="17" cy="17" r="5" style="fill:#30a14b"/>
 <path d="m14 17.0002c0 1.6568 1.3432 3 3 3 1.64 0 2.9702-1.3166 2.997-2.9502a0.5 0.5 0 0 0 3e-3 -0.05 0.5 0.5 0 0 0 -0.5 -0.5 0.5 0.5 0 0 0 -0.5 0.5c0 1.1046-0.89545 2-2 2s-2-0.89545-2-2 0.89545-2 2-2v1l2-1.5-2-1.5v1c-1.6568 0-3 1.3432-3 3z" style="fill:#ffffff"/>
</svg>

<svg xmlns="http://www.w3.org/2000/svg" width="22" height="22" version="1">
 <rect style="fill:#cccccc" width="20" height="16" x="-21" y="-19" rx="1" ry="1" transform="matrix(0,-1,-1,0,0,0)"/>
 <path style="opacity:0.2" d="m 3,20 0,0.5 c 0,0.554 0.446,1 1,1 l 14,0 c 0.554,0 1,-0.446 1,-1 L 19,20 c 0,0.554 -0.446,1 -1,1 L 4,21 C 3.446,21 3,20.554 3,20 Z"/>
 <path style="opacity:0.5" d="M 11,4 C 8.2386,4 6,6.2386 6,9 l 0,5 5,0 c 2.7614,0 5,-2.2386 5,-5 0,-2.7614 -2.2386,-5 -5,-5 z m 0,3 c 1.10456,0 2,0.89544 2,2 0,1.10456 -0.89544,2 -2,2 C 9.89544,11 9,10.10456 9,9 9,7.89544 9.89544,7 11,7 Z"/>
 <path style="opacity:0.2;fill:#ffffff" d="M 4,1 C 3.446,1 3,1.446 3,2 l 0,0.5 c 0,-0.554 0.446,-1 1,-1 l 14,0 c 0.554,0 1,0.446 1,1 L 19,2 C 19,1.446 18.554,1 18,1 L 4,1 Z"/>
 <circle style="fill:#30a14b" cx="17" cy="17" r="5"/>
 <path style="fill:#ffffff" d="m 14,17.0002 c 0,1.6568 1.3432,3 3,3 1.64,0 2.9702,-1.3166 2.997,-2.9502 A 0.5,0.5 0 0 0 20,17 0.5,0.5 0 0 0 19.5,16.5 0.5,0.5 0 0 0 19,17 c 0,1.1046 -0.89545,2 -2,2 -1.10455,0 -2,-0.89545 -2,-2 0,-1.10455 0.89545,-2 2,-2 l 0,1 2,-1.5 -2,-1.5 0,1 c -1.6568,0 -3,1.3432 -3,3 z"/>
</svg>
